packages/core/src/svgs/tokens/branded/RAD.svg

<svg width="24" height="24" viewBox="0 0 24 24" fill="none" xmlns="http://www.w3.org/2000/svg">
<path d="M5.20704 12.1546C4.67805 11.3612 3.27819 9.88394 2.646 9.25174C8.37446 7.87765 11.3806 12.1418 12.1676 14.4448C12.245 13.5868 12.8772 10.8839 14.761 6.89066C16.6511 2.8975 19.9476 1.96856 21.3539 2.0008C21.2764 3.35551 20.8248 6.54874 19.6572 8.46469C18.4831 10.3742 15.5157 10.5678 14.2643 10.4323C13.7508 11.8343 13.3179 13.2644 12.9675 14.7157C12.5354 16.4961 13.3675 19.7474 13.3998 20.6957C13.432 21.6569 12.832 21.9601 11.9676 21.9988C11.1033 22.0311 10.671 21.4182 10.671 20.6957C10.671 19.9861 11.3678 16.322 11.1999 14.4383C11.0709 12.9417 10.2324 12.1094 9.8389 11.8773C9.45175 12.4063 8.45833 13.4319 7.60679 13.3481C6.54239 13.2448 5.87793 13.1417 5.20704 12.1546Z" fill="#52DD4E"/>
</svg>

<svg xmlns="http://www.w3.org/2000/svg" width="24" height="24" fill="none" viewBox="0 0 24 24">
    <path fill="#52DD4E" d="M5.207 12.155c-.529-.794-1.929-2.271-2.561-2.903 5.728-1.374 8.735 2.89 9.522 5.193.077-.858.71-3.561 2.593-7.554 1.89-3.993 5.187-4.922 6.593-4.89-.078 1.355-.53 4.548-1.697 6.464-1.174 1.91-4.141 2.103-5.393 1.967a39 39 0 0 0-1.296 4.284c-.433 1.78.4 5.031.432 5.98.032.96-.568 1.264-1.432 1.303-.865.032-1.297-.58-1.297-1.303 0-.71.697-4.374.529-6.258-.13-1.496-.968-2.329-1.361-2.56-.387.528-1.38 1.554-2.232 1.47-1.065-.103-1.73-.206-2.4-1.193"/>
</svg>
